rospo-newyear-dark/symbolic/devices/tv-symbolic.svg

<svg height="16" width="16" xmlns="http://www.w3.org/2000/svg"><path d="m2 0c-2 0-2 2-2 2v9s0 2 2 2h12s2 0 2-2v-9s0-2-2-2zm3 3 7 3.5-7 3.5zm-1 11s-1 0-1 1v1h10v-1c0-1-1-1-1-1z" fill="#d3dae3"/></svg>

<svg xmlns="http://www.w3.org/2000/svg" width="16" height="16" version="1.1">
 <path style="fill:#d3dae3" d="M 2,0 C 0,0 0,2 0,2 V 11 C 0,11 0,13 2,13 H 14 C 14,13 16,13 16,11 V 2 C 16,2 16,0 14,0 Z M 5,3 12,6.5 5,10 Z M 4,14 C 4,14 3,14 3,15 V 16 H 13 V 15 C 13,14 12,14 12,14 Z"/>
</svg>
